X:626
T:Miss Erskine of Torry
R:Strathspey
C:Niel Gow
B:The Athole Collection
M:C
L:1/8
K:F
c|A>F F/F/F C>FA,>F|G>_EB,>E G<E ~E>c|A>F F/F/F C>FA,>F|
B>G E/F/G/E/ A<FF:|
|:f|c>f f/f/f c>fA>f|c>f f/f/f g<_e e>g|c>f f/f/f c>fA>f|B>G E/F/G/E/ A>FF:|
|:c|A>Fc>F d>Fc>f|G>_EB,E G<E E>c|A>Fc>F d>Fc>F|B>G E/F/G/E/ A<FF:|
|:c|f>ga>g c>fa>f|f>ga>g g<_e e>g|1 a>ga>f c>fa>f|b>g e/f/g/e/ a<ff:|2
b>ga>f g>ef>c|B>G E/F/G/E/ A<FF||

